copytrade/img/icomoon/sidebar-toggle.svg

<svg width="24" height="24" viewBox="0 0 24 24" fill="none" xmlns="http://www.w3.org/2000/svg">
<path fill-rule="evenodd" clip-rule="evenodd" d="M7 2C4.23858 2 2 4.23858 2 7V17C2 19.7614 4.23858 22 7 22H17C19.7614 22 22 19.7614 22 17V7C22 4.23858 19.7614 2 17 2H7ZM4 7C4 5.34315 5.34315 4 7 4H17C18.6569 4 20 5.34315 20 7V17C20 18.6569 18.6569 20 17 20H7C5.34315 20 4 18.6569 4 17V7ZM12.7071 8.70711C13.0977 8.31658 13.0977 7.68342 12.7071 7.29289C12.3166 6.90237 11.6835 6.90237 11.2929 7.29289L7.29293 11.2929C6.9024 11.6834 6.9024 12.3166 7.29293 12.7071L11.2929 16.7071C11.6835 17.0976 12.3166 17.0976 12.7071 16.7071C13.0977 16.3166 13.0977 15.6834 12.7071 15.2929L10.4142 13H16C16.5523 13 17 12.5523 17 12C17 11.4477 16.5523 11 16 11H10.4142L12.7071 8.70711Z" fill="#A6ACB7"/>
</svg>

<svg width="24" height="24" fill="none" xmlns="http://www.w3.org/2000/svg"><path fill-rule="evenodd" clip-rule="evenodd" d="M7 2a5 5 0 00-5 5v10a5 5 0 005 5h10a5 5 0 005-5V7a5 5 0 00-5-5H7zM4 7a3 3 0 013-3h10a3 3 0 013 3v10a3 3 0 01-3 3H7a3 3 0 01-3-3V7zm8.707 1.707a1 1 0 10-1.414-1.414l-4 4a1 1 0 000 1.414l4 4a1 1 0 001.414-1.414L10.414 13H16a1 1 0 100-2h-5.586l2.293-2.293z" fill="#A6ACB7"/></svg>
